brandFactory_export/3.Masa/Pin chincheta _3Masa.svg

<?xml version="1.0" encoding="UTF-8"?>
<svg width="24px" height="24px" viewBox="0 0 24 24" version="1.1" xmlns="http://www.w3.org/2000/svg" xmlns:xlink="http://www.w3.org/1999/xlink">
    <title>3.Masa/Pin chincheta _3Masa</title>
    <g id="Symbols" stroke="none" stroke-width="1" fill="none" fill-rule="evenodd">
        <g id="3.Masa/Pin-chincheta-_3Masa" fill="#5CB615" fill-rule="nonzero">
            <path d="M23.2369748,7.21008403 L16.4436975,0.383193277 C15.9495798,-0.114285714 15.1630252,-0.137815126 14.6453782,0.383193277 C13.7613445,1.27394958 13.2302521,2.25546218 13.0655462,3.30756303 L10.0302521,6.36638655 C8.28235294,6.06386555 5.79495798,6.35630252 3.16638655,9.00168067 L3.12941176,9.04201681 C2.84705882,9.32436975 2.69579832,9.69747899 2.69579832,10.097479 C2.69579832,10.4941176 2.85042017,10.8672269 3.12941176,11.1495798 L7.2605042,15.3109244 L0.221848739,22.3361345 C-0.0705882353,22.6285714 -0.0739495798,23.1092437 0.218487395,23.405042 C0.366386555,23.5529412 0.557983193,23.6268908 0.752941176,23.6268908 C0.941176471,23.6268908 1.13613445,23.5529412 1.28067227,23.4084034 L8.32268908,16.3798319 L12.5445378,20.6352941 C12.8268908,20.9210084 13.1966387,21.0655462 13.5764706,21.0655462 C13.9764706,21.0655462 14.3831933,20.9042017 14.712605,20.5714286 C16.8336134,18.4336134 17.7008403,16.1210084 17.2840336,13.6907563 L20.3226891,10.6285714 C21.3747899,10.4504202 22.3630252,9.90588235 23.2773109,8.98487395 C23.502521,8.75966387 23.6268908,8.45714286 23.6268908,8.13445378 C23.6235294,7.78823529 23.4890756,7.46218487 23.2369748,7.21008403" id="Path"></path>
        </g>
    </g>
</svg>

<svg width="24" height="24" viewBox="0 0 24 24" xmlns="http://www.w3.org/2000/svg"><path d="M23.237 7.21L16.444.383a1.25 1.25 0 00-1.799 0c-.884.89-1.415 1.872-1.58 2.925L10.03 6.366c-1.748-.302-4.235-.01-6.864 2.636l-.037.04a1.476 1.476 0 00-.433 1.055c0 .397.154.77.433 1.053l4.132 4.16-7.04 7.026a.76.76 0 00-.003 1.069.75.75 0 001.063.003l7.042-7.028 4.222 4.255c.282.286.652.43 1.031.43.4 0 .807-.16 1.137-.494 2.12-2.137 2.988-4.45 2.571-6.88l3.039-3.062c1.052-.179 2.04-.723 2.954-1.644.226-.225.35-.528.35-.85a1.312 1.312 0 00-.39-.925" fill="#5CB615" fill-rule="nonzero"/></svg>
